!!!!SEGMENT: pl-sa--18-a-i-18--005_barcicki-jan--polonaisso-no-5.krn
!!!cenid: 18xx:336
!!!COM: Barcicki, Jan
!!!COM-rismid: pe41021407
!!!CDT: ~1750-<~1812
!!!CNT: Polish
!!!OTL: Polonaisso - No. 5
!!!PDT:
!!!AGN: Secular; Polonaise
!!!SMS-siglum: PL-SA
!!!SMS-shelfmark: 18/A I 18
!!!SMS-shelfwork: 005 W
!!!SMS-variant:
!!!SMS-altvar:
!!!NIFC-rismid: 1001065333
!!!URL-scan: http://bc.bdsandomierz.pl/dlibra/publication/1284/edition/1252/content
!!!ONB-nifc:
**kern	**kern	**dynam
*part1	*part1	*part1
*staff2	*staff1	*
*Ipiano	*Iempty	*
*I"Piano	*	*
*I'Pno.	*	*
*clefG2	*clefG2	*
*k[b-e-a-]	*k[b-e-a-]	*
*c:	*c:	*
*M3/4	*M3/4	*
=1	=1	=1
!	!LO:TX:a:t=No&colon; 5to	!
!	!	!LO:DY:b=2
*tremolo	*	*
.	8qqcc/	p
(8e- 8c/L	4.cc\	f
8g/)	.	.
(8e- 8c/	.	.
8g/)	8ccT\	.
(8e- 8c/	(8.gg\L	.
8g/)J	.	.
.	16ee-\Jk)	.
=2	=2	=2
*	*2\right	*
(8d 8Bn/L	16dd\LL	.
.	16cc\	.
8g/)	16bn\	.
.	16cc\JJ	.
(8d 8Bn/	2bn\	.
8g/)	.	.
(8d 8Bn/	.	.
8g/)J	.	.
=3	=3	=3
.	8qeen/	.
8d 8B-/L	8ff\L	.
8g/	8.ff\J	.
8d 8B-/	.	.
.	16bbn\LL	.
8g/	16ddd\	.
.	16ccc\JJ	.
8d 8B-/	16bbn\LL	.
.	16aa-X\	.
8g/J	16gg\	.
.	16ff\JJ	.
=4	=4	=4
8e- 8c/L	16ff\LL	.
.	16gg\	.
8g/	16dd\	.
.	16ee-\JJ	.
8e- 8c/	2ee-\	.
8g/	.	.
8e- 8c/	.	.
8g/J	.	.
*Xtremolo	*	*
!!LO:LB:g=original
=5	=5	=5
*clefF4	*	*
.	16qqcc/LL	f
.	16qqee-/JJ	.
4c\	4gg\	.
4C/	8ggL 8ee-'\	.
.	8ggJ 8ee-'\	p
4r	8.aa-L 8.ff\	.
.	16ggJk 16ee-\	.
=6	=6	=6
4G\	(8.ggL 8.ee-\	f
.	16ffJk 16dd\)	.
4GG/	8ffL 8dd\	p
.	8ffJ 8dd\	.
4r	8.ggL 8.ee-\	.
.	16ff\Jk	.
=7	=7	=7
4C 4CC/	16ee-\LL	.
.	16bn\	.
.	16cc\	.
.	16dd\JJ	.
4r	16ee-\LL	.
.	16een\	.
.	16ff\	.
.	16ff#X\JJ	.
8r	16gg\LL	.
.	16ff#\	.
8C/	16gg\	.
.	16ee-X\JJ	.
=8	=8	=8
.	8qcc/	.
*	*^	*
4G\	8.ee-\L	4ryy	.
.	16dd\Jk	.	.
8r	2dd/	2bn\	.
!LO:TX:a:t=P:problem:mixed beam	!	!	!
8GG/L	.	.	.
8G\	.	.	.
8GG/J	.	.	.
*	*v	*v	*
=9	=9	=9
*2\right	*	*
*tremolo	*	*
!LO:TX:a:t=P:problem:mixed beam	!	!
8EE-/L	8ee-'\L	f f
8E-\	8ee-T\J	.
8EE-/	4.bb-X\	.
8E-\	.	.
8EE-/	.	.
8E-\J	8gg\	.
!!LO:LB:g=original
=10	=10	=10
!LO:TX:a:t=P:problem:mixed beam	!	!
!	!	!LO:DY:rj
!	!	!LO:DY:b=2
8GG/L	(8ee-\L	p
8G\	8b-\J)	.
8GG/	(4.b-\	.
8G\	.	.
8GG/	.	.
8G\J	8dd-X\)	.
*Xtremolo	*	*
=11	=11	=11
!	!	!LO:DY:rj
!	!	!LO:DY:b=2
4A- 4AA-/	8cc\L	f
.	16ccc\L	.
.	16bb-\JJ	.
8r	(8.bb-\L	.
8A-\L	.	.
.	16aa-\Jk)	.
8G\	(8.gg\L	.
8A-\J	.	.
.	16ff\Jk)	.
=12	=12	=12
4B-\	16ee-\LL	.
.	16dd\	.
.	16gg\	.
.	16ff\JJ	.
.	8qqff/	.
8r	2ee-\	.
8BB-/	.	.
4E-\	.	.
=13||	=13||	=13||
!	!	!LO:DY:rj
16BB-\LL	4.b- 4.d 4.B-/	f
16F\	.	.
16D\	.	.
16F\JJ	.	.
*rep	*	*
16BB-\LL	.	.
16F\	.	.
16D\	8b-T\L	.
16F\JJ	.	.
*Xrep	*	*
*rep	*	*
16BB-\LL	8dd\	.
16F\	.	.
16D\	8ff\J	.
16F\JJ	.	.
*Xrep	*	*
=14	=14	=14
16BB-\LL	(8.gg\L	.
16G\	.	.
16E-\	.	.
16G\JJ	16ee-\Jk)	.
*rep	*	*
16BB-\LL	(4.ee-\	.
16G\	.	.
16E-\	.	.
16G\JJ	.	.
*Xrep	*	*
*rep	*	*
16BB-\LL	.	.
16G\	.	.
16E-\	8gg\)	.
16G\JJ	.	.
*Xrep	*	*
!!LO:LB:g=original
=15	=15	=15
4E-\	4.bb-\	p
!LO:TX:a:t=P:problem:mixed beam	!	!
8EE-/L	.	.
8E-\	8bb-\	.
8D\	16ccc\LL	.
.	16bb-\	.
8E-\J	16aa-\	.
.	16gg\JJ	.
=16	=16	=16
*	*^	*
8r	8.ggL 8.ee-\	4ryy	.
8B-\	.	.	.
.	16ff\Jk	.	.
8B-L 8BB-\	2ff/	2dd\	.
8B-J 8BB-\	.	.	.
8BnL 8BB-\	.	.	.
8BJ 8BB-\	.	.	.
*	*v	*v	*
!!LO:PB:g=original
=17||	=17||	=17||
*k[]	*k[]	*
*C:	*C:	*
*M3/4	*M3/4	*
!	!LO:TX:t=P:problem:w źródle "Trio" zapisane na dolnej pięciolinii, przed taktem 17	!
!	!LO:TX:a:t=Trio	!
!	!	!LO:DY:rj
!	!	!LO:DY:t=f&colon;
.	8qqe	f
*tremolo	*	*
8CC/L	4cc 4e/	.
8C/	.	.
8CC/	(16cc\LL	.
.	16bn\	.
8C/	16cc\	.
.	16dd\JJ)	.
8CC/	8eenL 8cc\	.
8C/J	8eeJ 8cc\	.
*Xtremolo	*	*
=18	=18	=18
4GG/	8.eeL 8.cc\	.
.	16ff\Jk	.
8r	2dd\	.
8G\L	.	.
8D\	.	.
8BB\J	.	.
=19	=19	=19
*tremolo	*	*
!LO:TX:a:t=P:problem:mixed beam	!	!
8GG/L	4ddn 4b 4g\	.
8G\	.	.
8GG/	16dd\LL	.
.	16cc#X\	.
8G\	16dd\	.
.	16ee\JJ	.
8GG/	8ffL 8dd\	.
8G\J	8ffJ 8dd\	.
*Xtremolo	*	*
!!LO:LB:g=original
=20	=20	=20
4c\	8.ffL 8.dd\	.
.	16gg\Jk	.
8r	2ee 2cc\	.
8C\L	.	.
8E\	.	.
8G\J	.	.
=21	=21	=21
*	*Xtuplet	*
4c\	12gg\L	p
.	12aa\	.
.	12bb\J	.
4C/	(8.ccc\L	.
.	16bb\Jk)	.
4r	(8.aaL 8.ff\	.
.	16ggJk 16ee\)	.
=22	=22	=22
4C/	(16ff\LL	.
.	16ee\	.
.	16dd\	.
.	16ee\JJ)	.
8r	8.gg\L	.
8C/L	.	.
.	16ee\Jk	.
8G/	4dd\	.
8GG/J	.	.
=23||	=23||	=23||
!	!	!LO:DY:rj
4C 4CC/	16cc\LL	f
.	16dd\JJ	.
.	4ee\	.
8r	.	.
8DL 8DD/	8ff\L	.
8BB 8BBB/	8dd\	.
8CJ 8CC/	8ee\J	.
=24	=24	=24
4D 4DD/	8ff 8dd\	.
.	4ff 4dd\	.
8r	.	.
8E/L	8ggL 8ee\	.
8C/	8ee 8cc\	.
8D/J	8ffJ 8dd\	.
!!LO:LB:g=original
=25	=25	=25
4E\	12gg'\L	.
.	12aa'\	.
.	12gg'\J	.
4E 4EE/	8gg\L	.
.	16bb-X\L	.
.	16aa\JJ	.
4F 4FF/	(8.aa\L	.
.	16ff\Jk)	.
=26	=26	=26
4G\	8ee\L	.
.	16ff\L	.
.	16dd\JJ	.
.	8qqdd/	.
8r	2cc\	.
8GG/	.	.
4C/	.	.
=27||	=27||	=27||
!LO:TX:a:t=P:problem:mixed beam	!	!
8GG/L	4.gg\	.
8G\J	.	.
4GG/	.	.
.	16dd\LL	.
.	16ff\JJ	.
4r	16ff\LL	.
.	16ee-X\	.
.	16dd\	.
.	16cc\JJ	.
=28	=28	=28
4.G\	8bn\L	.
.	8cc\J	.
.	2dd\	.
8D\L	.	.
8E-X\	.	.
8C\J	.	.
=29	=29	=29
.	8qcc/	.
8r	4ee-X\	.
8C/	.	.
4E-X\	16dd\LL	.
.	16cc\	.
.	16b\	.
.	16cc\JJ	.
.	8qqcc/	.
4C/	(8.gg\L	.
.	16ee-\Jk)	.
!!LO:LB:g=original
=30	=30	=30
.	8qqcc/	.
4G\	8ee\L	.
.	8dd\J	.
8GL 8GG/	2dd/ 2g/	.
8F 8FF/	.	.
8E 8EE/	.	.
8DJ 8DD/	.	.
=||	=||	=||
*-	*-	*-
!!!system-decoration: {(s1,s2)}
!!!EED: Antoni Szymański
!!!EST: 2020-10-04
!!!AIN: 1 piano
!!!ENC: Andrzej Borzym
!!!END: 2020-06-02
